img/work/logo-modnakasta.svg

<svg width="164" height="35" viewBox="0 0 164 35" xmlns="http://www.w3.org/2000/svg" xmlns:xlink="http://www.w3.org/1999/xlink"><title>modna kasta copy 2</title><defs><path id="a" d="M0 .05h163.968V35H0"/><path id="c" d="M0 .05h163.968V35H0z"/><path id="e" d="M0 .05h163.968V35H0z"/></defs><g fill="none" fill-rule="evenodd"><g><mask id="b" fill="#fff"><use xlink:href="#a"/></mask><path d="M2.526 22.815V34.58H.458v-9.17c0-1.45.113-3.057-.458-3.902 2.36-1.108 7.395-1.776 9.488.366 4.095-2.76 9.808-1.07 9.745 3.113v9.594h-2.026v-9.21c-.002-1.214-.68-2.008-1.434-2.472-1.452-.896-3.99-.24-5.19.596.156.793.287 1.655.288 2.56l.01 8.527H8.813v-9.42c0-2.487-3.194-3.627-6.287-2.345" fill="#FEFEFE" mask="url(#b)"/></g><path d="M28.264 22.438c2.793 0 5.058 2.377 5.058 5.307 0 2.932-2.265 5.31-5.058 5.31-2.793 0-5.057-2.378-5.057-5.31 0-2.93 2.264-5.307 5.057-5.307zm0-1.937c3.958 0 7.168 3.245 7.168 7.245s-3.21 7.245-7.168 7.245-7.168-3.244-7.168-7.245c0-4 3.21-7.244 7.168-7.244v-.001zm19.108-4.605h2.043v17.3l.317.813c-1.91.805-3.414.98-5.857.98-3.958 0-7.167-3.244-7.167-7.244 0-4 3.21-7.245 7.167-7.245a7.07 7.07 0 0 1 3.497.92v-5.524zm-3.497 6.542c1.205 0 2.458.413 3.497 1.177v8.914c-1.062.42-2.335.53-3.497.523-2.792 0-5.057-2.376-5.057-5.307 0-2.93 2.265-5.308 5.057-5.308v.001zm10.122.362v11.785H52.01V22.48l-.498-1.18c5.088-1.695 10.798-1.182 11.473 3.415.063.428.05.792.06 1.27v8.6H61.06v-8.68c.044-3.617-3.935-4.23-7.06-3.106l-.003.001zm24.865-6.19h1.506v8.35l8.227-8.53 1.075 1.066-7.603 7.885 7.522 8.494-1.12 1.02-8.102-9.148v8.742h-1.506v-17.88l.001.001zM70.54 27.095c1.944 0 3.52 1.326 3.52 2.96 0 1.636-1.576 2.962-3.52 2.962-1.942 0-3.518-1.326-3.518-2.96 0-1.636 1.576-2.962 3.52-2.962h-.002zm-4.378-5.184l.84 1.723c2.65-1.61 7.397-2.466 6.954 2.863-.955-.772-2.222-1.242-3.61-1.242-2.973 0-5.383 2.15-5.383 4.802 0 2.652 2.41 4.802 5.382 4.802 1.398 0 2.67-.476 3.628-1.256.066.472.156.935.35 1.364l2.077-.606c-.388-1.147-.468-2.428-.505-3.727.05-1.71.1-3.115.15-4.825.178-5.976-6.324-6.512-9.884-3.897l.001-.001zm37.365 11.434c.198-.497.605-.782.845-1.237 1.118 1.225 4.663 2.124 6.54.938.96-.605 1.472-2.222.59-3.283-1.922-2.308-7.865-1.354-7.592-5.843.145-2.395 2.46-3.48 4.815-3.467 1.612.01 3.223.555 4.253 1.463-.28.386-.53.803-.84 1.15-.736-.463-1.908-1.252-3.71-1.282-1.714-.03-3.91 1.515-2.535 3.543 1.42 1.765 5.05 1.43 6.79 3.283.725.783.877 1.77.83 2.577-.098 1.714-1.374 3.145-3.21 3.587-2.444.588-5.278 0-6.776-1.43v.001zM92.434 23.024l-.59-1.28c1.916-1.618 6.6-1.682 8.35.073.862.817 1.224 2.198 1.224 3.833l.003 6.884c0 .784.045 1.42.294 1.963-.564.083-1.043.253-1.603.34a6.107 6.107 0 0 1-.21-1.578c-1.505 1.43-3.3 1.92-5.222 1.573-2.378-.427-3.86-1.76-4.144-4.303 0-1.103.123-2.1.786-3.034 1.017-1.436 2.903-2.2 4.993-2.084 1.554.09 2.764.833 3.628 1.792.125-1.612.092-3.036-.523-3.93-1.636-2.38-5.585-1.34-6.983-.25l-.003.001zm2.158 3.885c-2.137.522-3.242 3.048-2.073 4.984 1.54 2.554 6.317 2.074 7.232-.53.31-.884.19-1.78-.2-2.625-.86-1.858-3.19-2.262-4.96-1.83l.001.001zm33.025-3.885l-.59-1.28c1.915-1.618 6.6-1.682 8.35.073.862.817 1.223 2.198 1.224 3.833l.004 6.884c0 .784.043 1.42.293 1.963-.565.083-1.043.253-1.603.34a6.107 6.107 0 0 1-.21-1.578c-1.506 1.43-3.302 1.92-5.223 1.573-2.377-.427-3.86-1.76-4.143-4.303 0-1.103.123-2.1.786-3.034 1.017-1.436 2.902-2.2 4.993-2.084 1.554.09 2.763.833 3.627 1.792.125-1.612.092-3.036-.523-3.93-1.637-2.38-5.586-1.34-6.983-.25l-.002.001zm2.156 3.885c-2.135.522-3.24 3.048-2.07 4.984 1.54 2.554 6.316 2.074 7.23-.53.31-.884.192-1.78-.2-2.625-.86-1.858-3.187-2.262-4.96-1.83v.001zM116.84 16.413h1.442v4.48h5.344v1.267h-5.344v7.108c0 1.664.068 3.95 2.186 4.3 1.438.237 2.568-.354 3.437-1.16.363.36.674.68 1.038 1.038-1.496 1.47-3.673 1.747-4.918 1.42-1.693-.445-2.487-1.33-2.87-2.56-.338-1.094-.316-2.23-.316-3.333V22.16h-2.594v-1.267h2.593v-4.48h.002z" fill="#FEFEFE"/><g><mask id="d" fill="#fff"><use xlink:href="#c"/></mask><path d="M149.316 27.2c.956.103 1.65.96 1.55 1.917a1.74 1.74 0 0 1-1.897 1.568 1.748 1.748 0 0 1-1.552-1.918 1.738 1.738 0 0 1 1.898-1.568l.001.001zm14.652-13.09h-.002c-13.915.005-23.84 5.346-19.31 19.237v.005h.002c13.677 4.78 19.105-5.175 19.31-19.237v-.005z" fill="#4FB748" mask="url(#d)"/></g><g><mask id="f" fill="#fff"><use xlink:href="#e"/></mask><path d="M146.58 8.845c-.643.07-1.11.646-1.042 1.29a1.168 1.168 0 0 0 1.275 1.053 1.174 1.174 0 0 0 1.043-1.29 1.168 1.168 0 0 0-1.275-1.053h-.001zM136.735.05h.002c9.35.002 16.02 3.592 12.977 12.927l-.002.003c-9.19 3.213-12.838-3.477-12.976-12.928V.05h-.001z" fill="#EC008B" mask="url(#f)"/></g></g></svg>

<?xml version="1.0" encoding="UTF-8" standalone="no"?>
<svg width="164px" height="35px" viewBox="0 0 164 35" version="1.1" xmlns="http://www.w3.org/2000/svg" xmlns:xlink="http://www.w3.org/1999/xlink">
    <!-- Generator: Sketch 41 (35326) - http://www.bohemiancoding.com/sketch -->
    <title>modna kasta copy 2</title>
    <desc>Created with Sketch.</desc>
    <defs>
        <polyline id="path-1" points="0 0.05 163.968 0.05 163.968 35 0 35"></polyline>
        <polygon id="path-3" points="0 0.05 163.968 0.05 163.968 35 0 35"></polygon>
        <polygon id="path-5" points="0 0.05 163.968 0.05 163.968 35 0 35"></polygon>
    </defs>
    <g id="Content-real" stroke="none" stroke-width="1" fill="none" fill-rule="evenodd">
        <g id="Work-Copy" transform="translate(-221.000000, -12675.000000)">
            <g id="Group-6" transform="translate(160.000000, 12620.000000)">
                <g id="Group-Copy-21">
                    <g id="Rectangle-124">
                        <g id="modna-kasta" transform="translate(61.000000, 55.000000)">
                            <g id="logo">
                                <g id="Page-1">
                                    <g id="Group">
                                        <g id="Clipped">
                                            <mask id="mask-2" fill="white">
                                                <use xlink:href="#path-1"></use>
                                            </mask>
                                            <g id="a"></g>
                                            <path d="M2.526,22.815 L2.526,34.58 L0.458,34.58 L0.458,25.41 C0.458,23.96 0.571,22.353 0,21.508 C2.36,20.4 7.395,19.732 9.488,21.874 C13.583,19.114 19.296,20.804 19.233,24.987 L19.233,34.581 L17.207,34.581 L17.207,25.371 C17.205,24.157 16.527,23.363 15.773,22.899 C14.321,22.003 11.783,22.659 10.583,23.495 C10.739,24.288 10.87,25.15 10.871,26.055 L10.881,34.582 L8.813,34.582 L8.813,25.162 C8.813,22.675 5.619,21.535 2.526,22.817" id="Shape" fill="#FEFEFE" mask="url(#mask-2)"></path>
                                        </g>
                                        <path d="M28.264,22.438 C31.057,22.438 33.322,24.815 33.322,27.745 C33.322,30.677 31.057,33.055 28.264,33.055 C25.471,33.055 23.207,30.677 23.207,27.745 C23.207,24.815 25.471,22.438 28.264,22.438 L28.264,22.438 Z M28.264,20.501 C32.222,20.501 35.432,23.746 35.432,27.746 C35.432,31.746 32.222,34.991 28.264,34.991 C24.306,34.991 21.096,31.747 21.096,27.746 C21.096,23.746 24.306,20.502 28.264,20.502 L28.264,20.501 Z M47.372,15.896 L49.415,15.896 L49.415,33.196 L49.732,34.009 C47.822,34.814 46.318,34.989 43.875,34.989 C39.917,34.989 36.708,31.745 36.708,27.745 C36.708,23.745 39.918,20.5 43.875,20.5 C45.1007082,20.4983486 46.30579,20.8153847 47.372,21.42 L47.372,15.896 L47.372,15.896 Z M43.875,22.438 C45.08,22.438 46.333,22.851 47.372,23.615 L47.372,32.529 C46.31,32.949 45.037,33.059 43.875,33.052 C41.083,33.052 38.818,30.676 38.818,27.745 C38.818,24.815 41.083,22.437 43.875,22.437 L43.875,22.438 Z M53.997,22.8 L53.997,34.585 L52.01,34.585 L52.01,22.48 L51.512,21.3 C56.6,19.605 62.31,20.118 62.985,24.715 C63.048,25.143 63.035,25.507 63.045,25.985 L63.045,34.585 L61.06,34.585 L61.06,25.905 C61.104,22.288 57.125,21.675 54,22.799 L53.997,22.8 Z M78.862,16.61 L80.368,16.61 L80.368,24.96 L88.595,16.43 L89.67,17.496 L82.067,25.381 L89.589,33.875 L88.469,34.895 L80.367,25.747 L80.367,34.489 L78.861,34.489 L78.861,16.609 L78.862,16.61 Z M70.54,27.095 C72.484,27.095 74.06,28.421 74.06,30.055 C74.06,31.691 72.484,33.017 70.54,33.017 C68.598,33.017 67.022,31.691 67.022,30.057 C67.022,28.421 68.598,27.095 70.542,27.095 L70.54,27.095 Z M66.162,21.911 L67.002,23.634 C69.652,22.024 74.399,21.168 73.956,26.497 C73.001,25.725 71.734,25.255 70.346,25.255 C67.373,25.255 64.963,27.405 64.963,30.057 C64.963,32.709 67.373,34.859 70.345,34.859 C71.743,34.859 73.015,34.383 73.973,33.603 C74.039,34.075 74.129,34.538 74.323,34.967 L76.4,34.361 C76.012,33.214 75.932,31.933 75.895,30.634 C75.945,28.924 75.995,27.519 76.045,25.809 C76.223,19.833 69.721,19.297 66.161,21.912 L66.162,21.911 Z M103.527,33.345 C103.725,32.848 104.132,32.563 104.372,32.108 C105.49,33.333 109.035,34.232 110.912,33.046 C111.872,32.441 112.384,30.824 111.502,29.763 C109.58,27.455 103.637,28.409 103.91,23.92 C104.055,21.525 106.37,20.44 108.725,20.453 C110.337,20.463 111.948,21.008 112.978,21.916 C112.698,22.302 112.448,22.719 112.138,23.066 C111.402,22.603 110.23,21.814 108.428,21.784 C106.714,21.754 104.518,23.299 105.893,25.327 C107.313,27.092 110.943,26.757 112.683,28.61 C113.408,29.393 113.56,30.38 113.513,31.187 C113.415,32.901 112.139,34.332 110.303,34.774 C107.859,35.362 105.025,34.774 103.527,33.344 L103.527,33.345 Z M92.434,23.024 L91.844,21.744 C93.76,20.126 98.444,20.062 100.194,21.817 C101.056,22.634 101.418,24.015 101.418,25.65 L101.421,32.534 C101.421,33.318 101.466,33.954 101.715,34.497 C101.151,34.58 100.672,34.75 100.112,34.837 C99.97345,34.3224155 99.9028503,33.7919095 99.902,33.259 C98.397,34.689 96.602,35.179 94.68,34.832 C92.302,34.405 90.82,33.072 90.536,30.529 C90.536,29.426 90.659,28.429 91.322,27.495 C92.339,26.059 94.225,25.295 96.315,25.411 C97.869,25.501 99.079,26.244 99.943,27.203 C100.068,25.591 100.035,24.167 99.42,23.273 C97.784,20.893 93.835,21.933 92.437,23.023 L92.434,23.024 Z M94.592,26.909 C92.455,27.431 91.35,29.957 92.519,31.893 C94.059,34.447 98.836,33.967 99.751,31.363 C100.061,30.479 99.941,29.583 99.551,28.738 C98.691,26.88 96.361,26.476 94.591,26.908 L94.592,26.909 Z M127.617,23.024 L127.027,21.744 C128.942,20.126 133.627,20.062 135.377,21.817 C136.239,22.634 136.6,24.015 136.601,25.65 L136.605,32.534 C136.605,33.318 136.648,33.954 136.898,34.497 C136.333,34.58 135.855,34.75 135.295,34.837 C135.15645,34.3224155 135.08585,33.7919095 135.085,33.259 C133.579,34.689 131.783,35.179 129.862,34.832 C127.485,34.405 126.002,33.072 125.719,30.529 C125.719,29.426 125.842,28.429 126.505,27.495 C127.522,26.059 129.407,25.295 131.498,25.411 C133.052,25.501 134.261,26.244 135.125,27.203 C135.25,25.591 135.217,24.167 134.602,23.273 C132.965,20.893 129.016,21.933 127.619,23.023 L127.617,23.024 Z M129.773,26.909 C127.638,27.431 126.533,29.957 127.703,31.893 C129.243,34.447 134.019,33.967 134.933,31.363 C135.243,30.479 135.125,29.583 134.733,28.738 C133.873,26.88 131.546,26.476 129.773,26.908 L129.773,26.909 Z M116.84,16.413 L118.282,16.413 L118.282,20.893 L123.626,20.893 L123.626,22.16 L118.282,22.16 L118.282,29.268 C118.282,30.932 118.35,33.218 120.468,33.568 C121.906,33.805 123.036,33.214 123.905,32.408 C124.268,32.768 124.579,33.088 124.943,33.446 C123.447,34.916 121.27,35.193 120.025,34.866 C118.332,34.421 117.538,33.536 117.155,32.306 C116.817,31.212 116.839,30.076 116.839,28.973 L116.839,22.16 L114.245,22.16 L114.245,20.893 L116.838,20.893 L116.838,16.413 L116.84,16.413 Z" id="Shape" fill="#FEFEFE"></path>
                                        <g id="Clipped">
                                            <mask id="mask-4" fill="white">
                                                <use xlink:href="#path-3"></use>
                                            </mask>
                                            <g id="c"></g>
                                            <path d="M149.316,27.2 C150.272299,27.3033391 150.965166,28.1602591 150.866,29.117 C150.822447,29.5765185 150.598095,29.9999027 150.242321,30.2939748 C149.886546,30.588047 149.428504,30.7287075 148.969,30.685 C148.011747,30.5821655 147.31786,29.7246427 147.417,28.767 C147.460031,28.3070784 147.684383,27.8832073 148.040506,27.5890028 C148.396629,27.2947983 148.855221,27.1544661 149.315,27.199 L149.316,27.2 Z M163.968,14.11 L163.966,14.11 C150.051,14.115 140.126,19.456 144.656,33.347 L144.656,33.352 L144.658,33.352 C158.335,38.132 163.763,28.177 163.968,14.115 L163.968,14.11 L163.968,14.11 Z" id="Shape" fill="#4FB748" mask="url(#mask-4)"></path>
                                        </g>
                                        <g id="Clipped">
                                            <mask id="mask-6" fill="white">
                                                <use xlink:href="#path-5"></use>
                                            </mask>
                                            <g id="e"></g>
                                            <path d="M146.58,8.845 C145.936727,8.91475135 145.470902,9.49144519 145.538,10.135 C145.602,10.781 146.174,11.253 146.813,11.188 C147.45696,11.1192787 147.923646,10.5420742 147.856,9.898 C147.82689,9.58915198 147.676111,9.30457139 147.436922,9.10702911 C147.197732,8.90948684 146.889783,8.81521232 146.581,8.845 L146.58,8.845 Z M136.735,0.05 L136.737,0.05 C146.087,0.052 152.757,3.642 149.714,12.977 L149.712,12.98 C140.522,16.193 136.874,9.503 136.736,0.052 L136.736,0.05 L136.735,0.05 Z" id="Shape" fill="#EC008B" mask="url(#mask-6)"></path>
                                        </g>
                                    </g>
                                </g>
                            </g>
                        </g>
                    </g>
                </g>
            </g>
        </g>
    </g>
</svg>
